assets/icons/dribbble.svg

<?xml version="1.0" encoding="UTF-8"?>
<svg width="26px" height="26px" viewBox="0 0 26 26" version="1.1" xmlns="http://www.w3.org/2000/svg" xmlns:xlink="http://www.w3.org/1999/xlink">
    <g id="Page-1" stroke="none" stroke-width="1" fill="none" fill-rule="evenodd">
        <g id="Desktop-HD" transform="translate(-1014.000000, -1072.000000)" fill="#0030a3">
            <g id="Group-4" transform="translate(1014.000000, 1072.000000)">
                <g id="dribbble-ball-mark">
                    <path d="M13,0 C5.82322,0 0,5.82322 0,13 C0,20.17678 5.82322,26 13,26 C20.162688,26 26,20.17678 26,13 C26,5.82322 20.162688,0 13,0 Z M21.58676,5.992402 C23.137738,7.88177 24.06833,10.292854 24.09654,12.901304 C23.72994,12.830792 20.063992,12.083526 16.36986,12.548796 C16.285256,12.365522 16.214744,12.168104 16.130166,11.970712 C15.904564,11.43493 15.650752,10.88503 15.396966,10.36334 C19.485908,8.699574 21.347066,6.302608 21.58676,5.992402 Z M13,1.9175702 C15.81996,1.9175702 18.400226,2.97505 20.36008,4.709328 C20.162688,4.991324 18.484804,7.2332 14.536886,8.713666 C12.718004,5.372016 10.70173,2.63666 10.39155,2.213666 C11.22342,2.0162688 12.097618,1.9175702 13,1.9175702 Z M8.27658,2.960958 C8.572668,3.355742 10.54664,6.105216 12.393706,9.376354 C7.20499,10.758124 2.622568,10.72994 2.1290672,10.7299833 C2.848144,7.289594 5.174624,4.427332 8.27658,2.960958 Z M1.8893706,13.014092 C1.8893706,12.901304 1.8893706,12.788516 1.8893706,12.675702 C2.3687638,12.689794 7.75489,12.760306 13.296088,11.09654 C13.620386,11.716926 13.916474,12.351404 14.19847,12.985908 C14.057472,13.02821 13.902382,13.070512 13.761384,13.112788 C8.036886,14.95988 4.991324,20.007598 4.737538,20.430592 C2.97505,18.470712 1.8893706,15.862262 1.8893706,13.014092 Z M13,24.110632 C10.433852,24.110632 8.06507,23.236434 6.189794,21.77006 C6.387212,21.361184 8.64318,17.01843 14.90346,14.832974 C14.93167,14.818882 14.945762,14.818882 14.973972,14.804764 C16.539042,18.851404 17.173546,22.249448 17.342728,23.222342 C16.00326,23.800426 14.536886,24.110632 13,24.110632 Z M19.18982,22.207172 C19.077006,21.530366 18.48483,18.287412 17.032548,14.297192 C20.515196,13.747292 23.560732,14.649674 23.941424,14.77658 C23.462036,17.864418 21.685456,20.529288 19.18982,22.207172 Z" id="Shape"></path>
                </g>
            </g>
        </g>
    </g>
</svg>

<svg width="26" height="26" fill="none" xmlns="http://www.w3.org/2000/svg"><path fill-rule="evenodd" clip-rule="evenodd" d="M13 0C5.823 0 0 5.823 0 13s5.823 13 13 13c7.163 0 13-5.823 13-13S20.163 0 13 0zm8.587 5.992c1.55 1.89 2.481 4.3 2.51 6.91-.367-.071-4.033-.818-7.727-.353-.085-.183-.155-.38-.24-.578a33.027 33.027 0 00-.733-1.608c4.089-1.663 5.95-4.06 6.19-4.37zM13 1.918c2.82 0 5.4 1.057 7.36 2.791-.197.282-1.875 2.524-5.823 4.005-1.819-3.342-3.835-6.077-4.145-6.5A11.291 11.291 0 0113 1.918zM8.277 2.96c.296.395 2.27 3.144 4.117 6.415-5.189 1.382-9.771 1.354-10.265 1.354.72-3.44 3.046-6.303 6.148-7.769zM1.889 13.014v-.338c.48.014 5.866.084 11.407-1.58.324.62.62 1.255.902 1.89-.14.042-.296.084-.437.127-5.724 1.847-8.77 6.895-9.023 7.318a11.078 11.078 0 01-2.849-7.417zM13 24.111c-2.566 0-4.935-.875-6.81-2.34.197-.41 2.453-4.753 8.713-6.938.029-.014.043-.014.071-.028 1.565 4.046 2.2 7.444 2.369 8.417a10.92 10.92 0 01-4.343.889zm6.19-1.904c-.113-.677-.705-3.92-2.158-7.91 3.483-.55 6.529.353 6.91.48-.48 3.087-2.256 5.752-4.752 7.43z" fill="#fff"/></svg>
